assets/icons/navbar_explore_filled.svg

<svg width="25" height="25" viewBox="0 0 25 25" fill="none" xmlns="http://www.w3.org/2000/svg">
  <path fill-rule="evenodd" clip-rule="evenodd"
    d="M1.75 12.6799C1.75 6.74287 6.56294 1.92993 12.5 1.92993C18.4371 1.92993 23.25 6.74287 23.25 12.6799C23.25 18.617 18.4371 23.4299 12.5 23.4299C6.56294 23.4299 1.75 18.617 1.75 12.6799ZM14.1929 8.15657L11.4605 9.28168C10.6362 9.62107 10.2241 9.79077 9.91748 10.0974C9.61084 10.404 9.44114 10.8161 9.10175 11.6404L7.97664 14.3728C7.13275 16.4223 6.71079 17.447 7.22185 17.9581C7.7329 18.4691 8.75764 18.0472 10.8071 17.2033L13.5395 16.0781C14.3638 15.7388 14.7759 15.5691 15.0825 15.2624C15.3892 14.9558 15.5589 14.5437 15.8982 13.7194L17.0234 10.987C17.8673 8.93757 18.2892 7.91283 17.7782 7.40178C17.2671 6.89072 16.2424 7.31267 14.1929 8.15657ZM13.5 12.6799C13.5 12.1276 13.0523 11.6799 12.5 11.6799C11.9477 11.6799 11.5 12.1276 11.5 12.6799V12.6899C11.5 13.2422 11.9477 13.6899 12.5 13.6899C13.0523 13.6899 13.5 13.2422 13.5 12.6899V12.6799Z"
    fill="white" />
</svg>

<svg xmlns="http://www.w3.org/2000/svg" width="25" height="25" fill="none" viewBox="0 0 25 25"><path fill="#fff" fill-rule="evenodd" d="M1.75 12.68c0-5.937 4.813-10.75 10.75-10.75s10.75 4.813 10.75 10.75-4.813 10.75-10.75 10.75S1.75 18.617 1.75 12.68m12.443-4.523L11.46 9.282c-.825.34-1.237.509-1.544.815-.306.307-.476.72-.815 1.543l-1.125 2.733c-.844 2.05-1.266 3.074-.755 3.585.51.511 1.536.09 3.585-.755l2.733-1.125c.824-.34 1.236-.509 1.543-.816s.476-.718.815-1.543l1.125-2.732c.844-2.05 1.266-3.074.755-3.585-.51-.511-1.536-.09-3.585.755M13.5 12.68a1 1 0 1 0-2 0v.01a1 1 0 1 0 2 0z" clip-rule="evenodd"/></svg>
